!!!COM: Dunstable, John
!!!OTL: Sub tuam protectionem
!!!ONM: No. 51
!!!YOR: from: "Musica Britannica" Vol. 8, edited by Manfred F. Bukofzer,
!!!YOR: 2nd rev. ed. (prepared by Margaret Bent, Ian Bent & Brian Trowell), pp.125-126
!!!YOO: Royal Musical Association (London)
!!!YOY: 1970
**kern	**kern	**kern
*ICvox	*ICvox	*ICvox
! tenor	! contratenor	! discantus
*M3/4	*M3/4	*M3/4
=1	=1	=1
*>A	*>A	*>A
!! Section 'A'; (C) mensuration.
[1c	1r	1c
=2	=2	=2
1c]	[1c	4e
.	.	4f
.	.	2g
=3	=3	=3
1F	1c]	2.a
.	.	4g
=4	=4	=4
2A	4r	4e
.	4A	4f
4B	4G	2g
[4c	[4E	.
=5	=5	=5
4c]	4E]	4e
2d	4D	4f
.	2G	2d
4B	.	.
=6	=6	=6
1c	4A	2c
.	4F	.
.	2C	4r
.	.	4e
=7	=7	=7
*M3/2	*M3/2	*M3/2
2B-	4r	4d
.	4G	4.g
2A	4A	.
.	.	8f
.	2c	2f
2G	.	.
.	4B	8e
.	.	8d
=8	=8	=8
*M4/4	*M4/4	*M4/4
1F	2.A	4f
.	.	8c
.	.	4d
.	.	8c
.	[4F	[4A
=9	=9	=9
2.A	2F]	4A]
.	.	8c
.	.	8d
.	4c	4f
4G	4B	8e
.	.	[8d
=10	=10	=10
4F	8A	8d]
.	8G	8c
4E	2G	8c
.	.	16B
.	.	16c
2D	.	8d
.	.	8A
.	4F#x	8B
.	.	16A
.	.	16B
=11	=11	=11
[1C	2.G	1c
.	[4A	.
=12	=12	=12
1C]	4A]	1r
.	4G	.
.	4F	.
.	4E	.
=13	=13	=13
2r	[1C	[1e
[2G	.	.
=14	=14	=14
4G]	1C]	1e]
2c	.	.
[4G	.	.
=15	=15	=15
4G]	2r	2g
2A	.	.
.	4c	4f
4G	[4B	[4e
=16	=16	=16
4E	4B]	4e]
4F	4A	2d
2G	2G	.
.	.	4c
=17	=17	=17
*M3/2	*M3/2	*M3/2
1.C	2c	2e
.	2e	4r
.	.	4g
.	2c	4e
.	.	[4a
=18	=18	=18
*M4/4	*M4/4	*M4/4
4r	4B	8a]
.	.	8g
2G	4G	4.g
.	4d	.
.	.	8f
4A	4c	8e
.	.	8d
=19	=19	=19
2B	4B	4d
.	4G	2g
[2c	4r	.
.	[4F	[4a
=20	=20	=20
4c]	4F]	4a]
4B	4G	2g
4G	4B	.
4A	4c	4f#x
=21	=21	=21
[1G	4.d	2g
.	8c	.
.	4d	2r
.	[4B	.
=22	=22	=22
1G]	8B]	2r
.	8A	.
.	4B	.
.	4G	2e
.	4B	.
=23	=23	=23
1F	[1c	1a
=24	=24	=24
[1C	1c]	4g
.	.	2e
.	.	4a
=25	=25	=25
2C]	4r	4g
.	4G	4e
4F	4A	4d
4E	[4G	[4c
=26	=26	=26
2C	4G]	4c]
.	4c	4e
4D	4B	4f
[4C	4c	4e
=27	=27	=27
4C]	2G	2c
4E	.	.
4D	4r	4f
4C	4G	4e
=28	=28	=28
4F	4A	4d
4E	4B	4.e
2A	[2c	.
.	.	8c
.	.	[4f
=29	=29	=29
2G	4c]	8f]
.	.	8e
.	2B	4.e
2F	.	.
.	.	8d
.	[4A	[4d
=30	=30	=30
2E	4A]	8d]
.	.	8c
.	2G	4.c
2D	.	.
.	.	8B
.	4F#x	8B
.	.	8A
=31	=31	=31
[1C	[1G	1c
=32	=32	=32
1C]	1G]	2r
.	.	[2e
=33	=33	=33
1c	1C	4e]
.	.	2g
.	.	4a
=34	=34	=34
1G	1E	2b
.	.	4r
.	.	4g
=35	=35	=35
4r	2F	4a
4c	.	4cc
2d	2D	4b
.	.	[4a
=36	=36	=36
4c	4r	8a]
.	.	8g
4B	2d	2g
2A	.	.
.	4c	4f#x
=37	=37	=37
1G	4d	2g
.	2B	.
.	.	4r
.	4G	4e
=38	=38	=38
2F	2A	4d
.	.	4.f
2A	4r	.
.	.	8e
.	4F	[4c
=39	=39	=39
2G	4G	8c]
.	.	8d
.	4.B	8e
.	.	8f
2D	.	4g
.	8A	.
.	8d	8f
.	8c	[8e
=40	=40	=40
2F	8B	8e]
.	8A	8d
.	4.A	4.d
2E	.	.
.	4G	8c#x
.	.	8d
.	8F#x	8B
=41	=41	=41
1D	1A	2d
.	.	2r
=42	=42	=42
2r	[1D	[1f
[2d	.	.
=43	=43	=43
2d]	1D]	1f]
2A	.	.
=44	=44	=44
4B	1r	4d
2c	.	4c
.	.	4e
4G	.	[4g
=45	=45	=45
2A	2c	4g]
.	.	4f
4E	2B	2e
[4G	.	.
=46	=46	=46
4G]	4G	4B
4D	2A	2d
2E	.	.
.	4G	[4c
=47	=47	=47
2D	2F	4c]
.	.	4B
4C	2G	2c
4E	.	.
=48	=48	=48
4F	4A	2d
2G	4G	.
.	4B	4e
4E	4c#x	4g
=49	=49	=49
2D	2d	4f
.	.	2a
4F	4A	.
4G	4B	4g
=50	=50	=50
2A	2c	4e
.	.	4f#x
4G	4d	4.g
4B	4G	.
.	.	8d
=51	=51	=51
4c	4A	4e
2d	4G	4f
.	4D	4d
4c	4F	[4a
=52	=52	=52
4B	4G	8a]
.	.	8g
4G	2d	2g
2A	.	.
.	4c	8f#x
.	.	8e
=53	=53	=53
1G	1d	1g
=54	=54	=54
*>B	*>B	*>B
!! Section 'B'; (C) mensuration.
!! Contratenor part ignored (notated here as rests until bar 79).
!! Bukofzer has pointed out that this three part passage was originally a duet.
!! See M. Bent "Dunstaple" Oxford University Press (London 1980)pp 44-45
[1c	1r	1c
=55	=55	=55
1c]	1r	2e
.	.	4f
.	.	[4g
=56	=56	=56
4B	1r	4g]
2c	.	4e
.	.	2c
4A	.	.
=57	=57	=57
4B	1r	2d
8A	.	.
8B	.	.
2c	.	4c
.	.	4A
=58	=58	=58
4d	1r	4B
4c	.	2c
2A	.	.
.	.	4f
=59	=59	=59
2G	1r	4e
.	.	4.d
4F	.	.
.	.	8c
4E	.	[4c
=60	=60	=60
2D	1r	4c]
.	.	4B
4F	.	4A
4G	.	[4G
=61	=61	=61
2E	1r	4G]
.	.	4c
2F	.	4d
.	.	4f
=62	=62	=62
2C	1r	8e
.	.	8c
.	.	2c
2D	.	.
.	.	8B
.	.	8A
=63	=63	=63
1C	1r	1c
=64	=64	=64
*>C	*>C	*>C
!! Section 'C'; (C) mensuration.
1B	1r	2.d
.	.	[4G
=65	=65	=65
2G	1r	4G]
.	.	4B
4A	.	4c
[4G	.	4B
=66	=66	=66
4G]	1r	2G
4B	.	.
4c	.	4A
4B	.	4G
=67	=67	=67
8.A	1r	2B
16G	.	.
2G	.	.
.	.	2A
4F#x	.	.
=68	=68	=68
4G	1r	2G
2B	.	.
.	.	4r
[4c	.	4g
=69	=69	=69
4c]	1r	4a
4B	.	2g
2A	.	.
.	.	4f#x
=70	=70	=70
*M3/2	*M3/2	*M3/2
2G	1.r	1g
4r	.	.
4C	.	.
2D	.	4r
.	.	4f
=71	=71	=71
*M4/4	*M4/4	*M4/4
2C	1r	1e
4r	.	.
[4F	.	.
=72	=72	=72
2F]	1r	4c
.	.	2d
2G	.	.
.	.	4B
=73	=73	=73
4A	1r	2c
2c	.	.
.	.	4e
4B	.	[4d
=74	=74	=74
2d	1r	4d]
.	.	4f
4B	.	2g
[4c	.	.
=75	=75	=75
4c]	1r	4a
4B	.	2g
2A	.	.
.	.	4f
=76	=76	=76
4G	1r	2e
2E	.	.
.	.	4c
4D	.	[4d
=77	=77	=77
4F	1r	4d]
4C	.	2c
2D	.	.
.	.	4B
=78	=78	=78
1C	1r	1c
=79	=79	=79
*>D	*>D	*>D
!! Section 'D'; (O) mensuration.
*M3/4	*M3/4	*M3/4
[2.c	[2.C	4.e
.	.	8f
.	.	4g
=80	=80	=80
2.c]	2.C]	4e
.	.	4.a
.	.	8g
=81	=81	=81
4B	2.r	4g
4c	.	8e
.	.	8c
4B	.	8d
.	.	8f
=82	=82	=82
2c	4C	4e
.	4c	4c
[4G	4B	4r
=83	=83	=83
4G]	4G	4g
2F	2c	8a
.	.	4cc
.	.	8a
=84	=84	=84
4G	4r	8cc
.	.	8b
4B	4G	8g
.	.	4g
4A	4c	.
.	.	8f#x
=85	=85	=85
[2.G	4d	2.g
.	8c	.
.	4e	.
.	8d	.
=86	=86	=86
2.G]	4d	2r
.	4B	.
.	4G	4e
=87	=87	=87
4.c	4F	4.a
.	8C	.
8B	4G	8g
4G	.	8g
.	8B	8e
=88	=88	=88
4A	8c	8f
.	8A	16e
.	.	16f
2G	2B	8g
.	.	4e
.	.	[8d
=89	=89	=89
8B	4r	8d]
4c	.	8c
.	8c	8e
8B	4d	4g
4G	.	.
.	8B	8f
=90	=90	=90
8A	8c	8e
4B	8B	16d
.	.	16c
.	8G	8B
8G	4B	4e
4F	.	.
.	8A	8d
=91	=91	=91
[2.E	2B	2.e
.	8c	.
.	8B	.
=92	=92	=92
2.E]	4.e	2r
.	8d	.
.	8c	4e
.	8B	.
=93	=93	=93
2G	4B	8e
.	.	8d
.	4G	8B
.	.	8.d
4F	4r	.
.	.	16c
.	.	16B
.	.	16A
=94	=94	=94
2G	2E	4G
.	.	4r
4r	4C	4e
=95	=95	=95
4A	4c	8f
.	.	4e
4G	8B	.
.	8G	4d
8F	8A	.
8E	[8G	[8c
=96	=96	=96
4D	8G]	8c]
.	8F	8B
8C	4G	4c
8E	.	.
8F	8A	4r
[8G	8G	.
=97	=97	=97
8G]	8B	8e
8A	8c	8f
8B	4B	4d
4G	.	.
.	4G	8e
8B	.	8g
=98	=98	=98
8c	8E	8a
8d	8D	8.b
4B	8r	.
.	.	16g
.	8G	4g
4A	8A	.
.	8c	8f#x
=99	=99	=99
4G	8B	8g
.	4G	8e
8E	.	4c
4F	8F	.
.	8A	8d
8D	8B	[8f
=100	=100	=100
8C	8.c	16f]
.	.	16e
8E	.	16d
.	16G	16c
8F	8A	8d
8C	4G	4c
4D	.	.
.	8F#x	8B
=101	=101	=101
[2.C	[2.G	[2.c
=102	=102	=102
2.C]	2.G]	2.c]
==	==	==
*-	*-	*-
!!!ENC: Mark Laxton
!!!EDD: Mark Laxton
!!!YEC: Mark Laxton, 1987
!!!EMD: Reference records added by D. Huron, 2001
!!!EEV: 1.1
